resources/svg/solid/weight-scale.svg

<svg fill="currentColor" xmlns="http://www.w3.org/2000/svg" viewBox="0 0 512 512"><!--! Font Awesome Free 6.1.2 by @fontawesome - https://fontawesome.com License - https://fontawesome.com/license/free (Icons: CC BY 4.0, Fonts: SIL OFL 1.1, Code: MIT License) Copyright 2022 Fonticons, Inc. --><path d="M310.3 97.25c-8-3.5-17.5 .25-21 8.5L255.8 184C233.8 184.3 216 202 216 224c0 22.12 17.88 40 40 40S296 246.1 296 224c0-10.5-4.25-20-11-27.12l33.75-78.63C322.3 110.1 318.4 100.8 310.3 97.25zM448 64h-56.23C359.5 24.91 310.7 0 256 0S152.5 24.91 120.2 64H64C28.75 64 0 92.75 0 128v320c0 35.25 28.75 64 64 64h384c35.25 0 64-28.75 64-64V128C512 92.75 483.3 64 448 64zM256 304c-70.58 0-128-57.42-128-128s57.42-128 128-128c70.58 0 128 57.42 128 128S326.6 304 256 304z"/></svg>

<svg fill="currentColor" xmlns="http://www.w3.org/2000/svg" viewBox="0 0 512 512"><!--! Font Awesome Free 6.2.0 by @fontawesome - https://fontawesome.com License - https://fontawesome.com/license/free (Icons: CC BY 4.0, Fonts: SIL OFL 1.1, Code: MIT License) Copyright 2022 Fonticons, Inc. --><path d="M384 176c0 70.7-57.3 128-128 128s-128-57.3-128-128s57.3-128 128-128s128 57.3 128 128zm7.8-112C359.5 24.9 310.7 0 256 0S152.5 24.9 120.2 64H64C28.7 64 0 92.7 0 128V448c0 35.3 28.7 64 64 64H448c35.3 0 64-28.7 64-64V128c0-35.3-28.7-64-64-64H391.8zM296 224c0-10.6-4.1-20.2-10.9-27.4l33.6-78.3c3.5-8.1-.3-17.5-8.4-21s-17.5 .3-21 8.4L255.7 184c-22 .1-39.7 18-39.7 40c0 22.1 17.9 40 40 40s40-17.9 40-40z"/></svg>
